src/assets/icons/fa/eraser.svg

<?xml version="1.0" encoding="utf-8"?>
<svg width="2048" height="1792" viewBox="0 0 2048 1792" xmlns="http://www.w3.org/2000/svg"><path d="M960 1408l336-384h-768l-336 384h768zm1013-1077q15 34 9.5 71.5t-30.5 65.5l-896 1024q-38 44-96 44h-768q-38 0-69.5-20.5t-47.5-54.5q-15-34-9.5-71.5t30.5-65.5l896-1024q38-44 96-44h768q38 0 69.5 20.5t47.5 54.5z"/></svg>

<svg width="2048" height="1792" xmlns="http://www.w3.org/2000/svg"><path d="M960 1408l336-384H528l-336 384h768zM1973 331q15 34 9.5 71.5T1952 468l-896 1024q-38 44-96 44H192q-38 0-69.5-20.5T75 1461q-15-34-9.5-71.5T96 1324L992 300q38-44 96-44h768q38 0 69.5 20.5T1973 331z"/></svg>
